static/r-mask.svg

<svg viewBox="0 0 300 343" xmlns="http://www.w3.org/2000/svg"><path d="m208.25 343-61.86-119h-63.92v119h-82.47v-343h161.34c85 0 128.87 45.32 128.87 109.18 0 51-32 83.95-63.92 98.89l73.71 134.93zm-48.46-269.35h-77.32v85h77.32c26.81 0 46.91-16 46.91-42.74 0-27.33-20.62-42.26-46.91-42.26z" fill="#231f20"/></svg>

<svg id="Layer_1" data-name="Layer 1" xmlns="http://www.w3.org/2000/svg" viewBox="0 0 300 343"><title>r-mask</title><path d="M208.25,343,146.39,224H82.47V343H0V0H161.34c85,0,128.87,45.32,128.87,109.18,0,51-32,83.95-63.92,98.89L300,343ZM159.79,73.65H82.47v85h77.32c26.81,0,46.91-16,46.91-42.74C206.7,88.58,186.08,73.65,159.79,73.65Z" style="fill:#231f20"/></svg>
